!!!COM: Gustav Mahler
!!!CNT: Deutsch
!!!TXO: Deutsch
!!!OTL: "Starke Einbildungskraft"
!!!LYR: Des Knaben Wunderhorn
!!!OPR: Des Knaben Wunderhorn, Part 1
!!!ENC: O'Neal Douglas
!!!YOR: CD Sheet Music: Late Romantic German Lieder
!!!YOR: CD Sheet Music, LLC, 2001
!!!ODT: 1890/
!!NB: Vocal melody and text encoded.
**kern	**text
*staff1	*staff1
*clefG2	*
*k[f#c#g#]	*
*M4/4	*
*MM80	*
8r	. 
=1	=1 
1r	. 
=2	=2 
2r	. 
4r	. 
{8e	{Hast 
8e	ge- 
=3	=3 
8a	-sagt, 
8a	du 
8a	willst
8a	mich
8a	neh-
8e	-men,
8r	.
(16g#	so-
16a)	|
=4	=4
8b	-bald
8b	der
8b	Som-
8b	-mer
4b}	kommt!}
8r	.
{8e	{Der
=5	=5
8.cc#	Som-
16cc#	-mer
8cc#	ist
8cc#	ge-
4dd	-kom-
8cc#	-men,
8cc#	ja
=6	=6
4dd	kom-
8cc#	-men,
8cc#	du
8.b	hast
16b	mich
8b	nicht
8b	ge-
=7	=7
4cc#	-nom-
8b	-men,
8b	ja
4cc#	nom-
8b}	-men!}
{8b	{Geb',
=8	=8
(16a	Bu2b-
16g#)	|
8f#	-le,
8f#	geh!
8b	Geh',
8b	nehm'
8g#	mich!
8r	.
8b	Geh',
=9	=9
(16b	Bu2b-
16a)	|
8g#	-le,
8g#	geh!
8cc#	Geh',
8cc#	nehm'
8a}	mich!}
8r	.
{8dd	{Gelt,
=10	=10
4b	ja?
8r	.
8dd	Gelt,
4b	ja?
8r	.
8dd	Gelt,
=11	=11
8cc#	ja,
(16b	du
16a)	|
8g#	nimmst
8a	mich
4b}	noch?}
8r	.
{8e	{Wie
=12	=12
8a	soll
8a	ich
8a	dich
8a	denn
8a	neh-
8e	-men,
8r	.
(16g#	die-
16a)	|
=13	=13
8b	-weil
8b	ich
8b	doch
8b	schon
4b}	hab'?}
8r	.
{8e	{Und
=14	=14
8cc#	wenn
8cc#	ich
8cc#	halt
8cc#	an
8.ee	dich
16dd	ge-
8cc#	-denk',
8cc#	und
=15	=15
8b	wenn
8b	ich
8b	halt
8b	an
8.dd	dich
16cc#	ge-
8b	-denk',
8b	so
=16	=16
8a	mein'
8f#}	ich,}
8r	.
{8b	{so
8b	mein'
8g#	ich,
8r	.
8cc#	so
=17	=17
8cc#	mein'
8cc#	ich
8cc#	al-
8cc#	-le-
(8cc#	-wei-
8a)	|
8dd	-le:
8cc#	ich
=18	=18
(8b	wa2r'
8a)	|
8a	schon
8g#	bei
4a}	dir!}
4r	.
=19	=19
1r	.
=20	=20
1r	.
==	==
*-	*-
